img/subscribe/padatak-order-check.svg

<svg width="77" height="77" viewBox="0 0 77 77" fill="none" xmlns="http://www.w3.org/2000/svg">
<path d="M12.8516 67.0467C12.8516 67.9216 13.561 68.6334 14.4331 68.6334H34.5597C35.4316 68.6334 36.141 67.9216 36.141 67.0467V63.6066C36.141 62.7318 35.4317 62.02 34.5597 62.02H14.4331C13.5611 62.02 12.8516 62.7318 12.8516 63.6066V67.0467ZM15.0999 64.2759H33.8926V66.3776H15.0999V64.2759Z" fill="#C47A2C"/>
<path d="M12.8516 45.4203C12.8516 46.0432 13.3547 46.5482 13.9757 46.5482H56.4111C57.032 46.5482 57.5352 46.0432 57.5352 45.4203V27.3022C57.5352 26.6793 57.032 26.1743 56.4111 26.1743H13.9757C13.3547 26.1743 12.8516 26.6793 12.8516 27.3022V45.4203ZM42.4873 28.4302H55.287V32.2137H42.4873V28.4302ZM42.4873 34.4696H55.287V38.2529H42.4873V34.4696ZM42.4873 40.5088H55.287V44.2923H42.4873V40.5088ZM21.2695 28.4302H40.239V32.2137H21.2695V28.4302ZM21.2695 34.4696H40.239V38.2529H21.2695V34.4696ZM21.2695 40.5088H40.239V44.2923H21.2695V40.5088ZM15.0999 28.4302H19.0212V32.2137H15.0999V28.4302ZM15.0999 34.4696H19.0212V38.2529H15.0999V34.4696ZM15.0999 40.5088H19.0212V44.2923H15.0999V40.5088Z" fill="#C47A2C"/>
<path d="M46.9157 10.0703C47.5367 10.0703 48.0398 9.5653 48.0398 8.94238C48.0398 8.31946 47.5367 7.81445 46.9157 7.81445H33.6987C32.8268 7.81445 32.1172 8.52625 32.1172 9.40107V12.8638C32.1172 13.7386 32.8266 14.4504 33.6987 14.4504H55.9558C56.8277 14.4504 57.5373 13.7386 57.5373 12.8638V9.40122C57.5373 8.5264 56.8279 7.8146 55.9558 7.8146H52.1618C51.5408 7.8146 51.0376 8.31962 51.0376 8.94253C51.0376 9.56545 51.5408 10.0705 52.1618 10.0705H55.289V12.1949H34.3655V10.0703H46.9157Z" fill="#C47A2C"/>
<path d="M13.9757 53.7134H23.7569C24.3779 53.7134 24.8811 53.2084 24.8811 52.5854C24.8811 51.9625 24.3779 51.4575 23.7569 51.4575H13.9757C13.3547 51.4575 12.8516 51.9625 12.8516 52.5854C12.8516 53.2084 13.3547 53.7134 13.9757 53.7134Z" fill="#C47A2C"/>
<path d="M13.9757 58.8467H23.7569C24.3779 58.8467 24.8811 58.3417 24.8811 57.7188C24.8811 57.0958 24.3779 56.5908 23.7569 56.5908H13.9757C13.3547 56.5908 12.8516 57.0958 12.8516 57.7188C12.8516 58.3417 13.3547 58.8467 13.9757 58.8467Z" fill="#C47A2C"/>
<path d="M63.2529 51.8645V1.87988C63.2529 0.84324 62.4125 0 61.3793 0H9.00644C7.97324 0 7.13281 0.84324 7.13281 1.87988V73.4673C7.13281 74.504 7.97324 75.3472 9.00644 75.3472H16.6352C17.2562 75.3472 17.7594 74.8422 17.7594 74.2193C17.7594 73.5964 17.2562 73.0913 16.6352 73.0913H9.38116V2.25586H61.0046V50.7195C59.466 50.1103 57.7906 49.7754 56.0389 49.7754C53.6744 49.7754 51.4495 50.386 49.5119 51.4575H27.822C27.201 51.4575 26.6978 51.9625 26.6978 52.5854C26.6978 53.2084 27.201 53.7134 27.822 53.7134H46.5045C45.6445 54.5667 44.8971 55.534 44.2875 56.5909H27.822C27.201 56.5909 26.6978 57.096 26.6978 57.7189C26.6978 58.3418 27.201 58.8468 27.822 58.8468H43.2491C42.7463 60.2677 42.4717 61.7961 42.4717 63.3877C42.4717 67.1833 44.0286 70.6201 46.5345 73.0913H21.8814C21.2604 73.0913 20.7572 73.5964 20.7572 74.2193C20.7572 74.8422 21.2604 75.3472 21.8814 75.3472H49.5641C51.4894 76.4007 53.6956 77 56.0389 77C63.5197 77 69.6059 70.8935 69.6059 63.3877C69.6057 58.5398 67.0666 54.2766 63.2529 51.8645ZM56.0389 74.7441C49.7976 74.7441 44.7201 69.6497 44.7201 63.3877C44.7201 57.1257 49.7976 52.0312 56.0389 52.0312C62.28 52.0312 67.3575 57.1257 67.3575 63.3877C67.3575 69.6497 62.2798 74.7441 56.0389 74.7441Z" fill="#C47A2C"/>
<path d="M64.2157 64.9523C63.6271 64.7534 62.9898 65.071 62.7916 65.6614C61.8134 68.5776 59.0992 70.5369 56.038 70.5369C52.109 70.5369 48.9124 67.3297 48.9124 63.3874C48.9124 59.4452 52.109 56.2379 56.038 56.2379C59.1009 56.2379 61.8154 58.1986 62.7928 61.1168C62.9907 61.7072 63.6272 62.0248 64.2166 61.8266C64.8051 61.6281 65.1218 60.9886 64.9241 60.398C63.6386 56.5604 60.0677 53.9819 56.038 53.9819C50.8692 53.9819 46.6641 58.2011 46.6641 63.3872C46.6641 68.5734 50.8692 72.7926 56.038 72.7926C60.0656 72.7926 63.6358 70.216 64.9224 66.3809C65.1208 65.7908 64.8042 65.151 64.2157 64.9523Z" fill="#034A66"/>
<path d="M59.2604 60.6023L55.47 64.4054L52.8098 61.7361C52.3706 61.2956 51.6589 61.2956 51.2199 61.7361C50.7809 62.1766 50.7809 62.8908 51.2199 63.3312L54.6752 66.798C54.8947 67.0183 55.1824 67.1284 55.4702 67.1284C55.7578 67.1284 56.0456 67.0183 56.2652 66.798L60.8506 62.1974C61.2896 61.7569 61.2896 61.0427 60.8506 60.6023C60.4114 60.1618 59.6998 60.1618 59.2604 60.6023Z" fill="#034A66"/>
<path d="M45.5773 16.3105C44.9563 16.3105 44.4531 16.8156 44.4531 17.4385C44.4531 18.0614 44.9563 18.5664 45.5773 18.5664H56.4118C57.0328 18.5664 57.536 18.0614 57.536 17.4385C57.536 16.8156 57.0328 16.3105 56.4118 16.3105H45.5773Z" fill="#C47A2C"/>
</svg>

<svg width="77" height="77" fill="none" xmlns="http://www.w3.org/2000/svg"><path d="M12.852 67.047c0 .875.709 1.586 1.581 1.586H34.56c.872 0 1.581-.711 1.581-1.586v-3.44c0-.875-.71-1.587-1.581-1.587H14.433c-.872 0-1.581.712-1.581 1.587v3.44zm2.248-2.771h18.793v2.102H15.1v-2.102zM12.852 45.42c0 .623.503 1.128 1.124 1.128H56.41c.621 0 1.124-.505 1.124-1.128V27.302c0-.623-.503-1.128-1.124-1.128H13.976c-.621 0-1.124.505-1.124 1.128V45.42zm29.635-16.99h12.8v3.784h-12.8V28.43zm0 6.04h12.8v3.783h-12.8V34.47zm0 6.039h12.8v3.783h-12.8V40.51zM21.27 28.43h18.97v3.784H21.27V28.43zm0 6.04h18.97v3.783H21.27V34.47zm0 6.039h18.97v3.783H21.27V40.51zM15.1 28.43h3.922v3.784H15.1V28.43zm0 6.04h3.922v3.783H15.1V34.47zm0 6.039h3.922v3.783H15.1V40.51zM46.916 10.07c.62 0 1.124-.505 1.124-1.128 0-.623-.503-1.128-1.124-1.128H33.699c-.872 0-1.582.712-1.582 1.587v3.463c0 .875.71 1.586 1.582 1.586h22.257c.872 0 1.581-.711 1.581-1.586V9.4c0-.875-.71-1.586-1.581-1.586h-3.794c-.621 0-1.124.505-1.124 1.128 0 .622.503 1.127 1.124 1.127h3.127v2.125H34.365V10.07h12.55zm-32.94 43.643h9.78c.622 0 1.125-.505 1.125-1.128 0-.623-.503-1.127-1.124-1.127h-9.781c-.621 0-1.124.505-1.124 1.127 0 .623.503 1.128 1.124 1.128zm0 5.134h9.78c.622 0 1.125-.505 1.125-1.128 0-.623-.503-1.128-1.124-1.128h-9.781c-.621 0-1.124.505-1.124 1.128 0 .623.503 1.128 1.124 1.128z" fill="#C47A2C"/><path d="M63.253 51.864V1.88c0-1.037-.84-1.88-1.874-1.88H9.006a1.879 1.879 0 00-1.873 1.88v71.587c0 1.037.84 1.88 1.873 1.88h7.63c.62 0 1.123-.505 1.123-1.128 0-.623-.503-1.128-1.124-1.128H9.381V2.256h51.624v48.463a13.46 13.46 0 00-4.966-.944c-2.365 0-4.59.611-6.527 1.683h-21.69c-.621 0-1.124.505-1.124 1.127 0 .623.503 1.128 1.124 1.128h18.683a13.73 13.73 0 00-2.218 2.878H27.823c-.621 0-1.124.505-1.124 1.128 0 .623.503 1.128 1.124 1.128H43.25a13.587 13.587 0 00-.777 4.54c0 3.796 1.557 7.233 4.063 9.704H21.88c-.62 0-1.124.505-1.124 1.128 0 .623.503 1.128 1.124 1.128h27.683A13.448 13.448 0 0056.04 77c7.48 0 13.567-6.106 13.567-13.612 0-4.848-2.54-9.111-6.353-11.523zm-7.214 22.88c-6.241 0-11.319-5.094-11.319-11.356S49.798 52.03 56.04 52.03c6.241 0 11.319 5.095 11.319 11.357s-5.078 11.356-11.32 11.356z" fill="#C47A2C"/><path d="M64.216 64.952a1.123 1.123 0 00-1.424.71 7.125 7.125 0 01-6.754 4.875c-3.929 0-7.126-3.207-7.126-7.15 0-3.942 3.197-7.15 7.126-7.15a7.125 7.125 0 016.755 4.88 1.124 1.124 0 102.131-.719 9.372 9.372 0 00-8.886-6.416c-5.169 0-9.374 4.22-9.374 9.405 0 5.186 4.205 9.406 9.374 9.406a9.372 9.372 0 008.884-6.412 1.128 1.128 0 00-.706-1.429z" fill="#034A66"/><path d="M59.26 60.602l-3.79 3.803-2.66-2.669a1.123 1.123 0 00-1.59 0 1.13 1.13 0 000 1.595l3.455 3.467a1.119 1.119 0 001.59 0l4.586-4.6a1.13 1.13 0 000-1.596 1.123 1.123 0 00-1.59 0z" fill="#034A66"/><path d="M45.577 16.31a1.127 1.127 0 000 2.256h10.835c.62 0 1.124-.505 1.124-1.127 0-.623-.503-1.128-1.124-1.128H45.577z" fill="#C47A2C"/></svg>
